assets/gi/gi-abstract-102.svg

<svg xmlns="http://www.w3.org/2000/svg" width="100%" height="100%" viewBox="-35.84 -35.84 583.68 583.68"><path d="m21,21.0002c4.4053,21.1214 8.3148,44.4171 11.4562,69.178h76.2281v48.3219h-55.3719c7.6285,26.1221 12.6034,63.7142 13.3656,106.1905h41.2718v31.2843h-41.5656c-.1557,4.8889-.1737,9.6594-.4403,14.3938h42.0063v31.2843h-44.7969c-2.3412,20.0301-5.6809,37.7499-9.8406,51.9937h55.3718v48.3219h-76.2281c-3.1414,24.7609-7.0509,47.9097-11.4562,69.0312 46.2673-8.7542 101.0824-14.9264 160.9749-17.7718v-51.2593-48.3219h35.1031c7.8055,70.0923 22.2158,117.353 38.9219,117.353s31.2461-47.2608 39.0687-117.353h35.1032v48.3219 51.2593c59.8924,2.8455 114.5606,9.0176 160.8279,17.7718-4.4053-21.1214-8.1679-44.2702-11.3093-69.0312h-76.2281v-48.3219h55.3719c-4.1597-14.2438-7.5727-31.9636-9.9875-51.9937h-44.7969v-31.2843h42.0062c-.2789-4.7345-.4237-9.5047-.5873-14.3938h-41.4187v-31.2843h41.1249c.8024-42.4763 6.0309-80.0684 13.6594-106.1905h-55.3719v-48.3219h76.2281c3.1414-24.7609 6.9041-48.0566 11.3094-69.178-46.2674,8.7542-100.9356,15.0732-160.828,17.9187v99.5812h-35.1031c-7.8236-70.1187-22.3613-117.4999-39.0687-117.4999s-31.1151,47.3812-38.9219,117.4999h-35.1031v-99.5812c-59.8925-2.8456-114.7075-9.1645-160.9749-17.9187zm120.2905,171.2561h229.5655v127.6342h-229.5655v-127.6342zm29.375,48.4687v65.2124h170.6687v-65.2124h-85.3344-85.3343z"/></svg>

<svg xmlns="http://www.w3.org/2000/svg" width="100%" height="100%" viewBox="-35.84 -35.84 583.68 583.68"><path d="M21 21c4.405 21.122 8.315 44.417 11.456 69.178h76.228V138.5H53.312c7.629 26.122 12.604 63.714 13.366 106.19h41.272v31.285H66.384c-.155 4.889-.173 9.66-.44 14.394h42.006v31.284H63.153c-2.34 20.03-5.68 37.75-9.84 51.994h55.372v48.322H32.456c-3.141 24.76-7.05 47.91-11.456 69.03 46.268-8.753 101.083-14.926 160.975-17.771V373.647h35.103C224.884 443.739 239.294 491 256 491s31.246-47.261 39.069-117.353h35.103v99.581C390.064 476.074 444.732 482.246 491 491c-4.405-21.122-8.168-44.27-11.31-69.031h-76.228v-48.322h55.372c-4.16-14.244-7.572-31.964-9.987-51.994H404.05v-31.284h42.006c-.279-4.735-.424-9.505-.587-14.394H404.05V244.69h41.125c.802-42.477 6.031-80.069 13.66-106.19h-55.372V90.177h76.228C482.832 65.418 486.595 42.122 491 21c-46.268 8.754-100.937 15.073-160.829 17.919V138.5H295.07C287.245 68.381 272.708 21 256 21s-31.115 47.381-38.922 117.5h-35.103V38.92C122.083 36.073 67.268 29.754 21 21zm120.29 171.256h229.566v127.635H141.291V192.256zm29.376 48.469v65.212h170.668v-65.212H170.665z"/></svg>
